src/assets/images/logo.svg

<svg width="195" height="20" viewBox="0 0 195 20" fill="none" xmlns="http://www.w3.org/2000/svg">
<path d="M12.2446 13.1934L8.73971 5.67956L5.21237 13.1934H12.2446ZM19.3891 19.8232V20H13.5701V19.8232H15.345L12.3344 13.3923H5.1225L2.11191 19.8232H3.88681V20H0V19.8232H1.86477L8.60491 5.41436L9.59346 3.31492L9.70579 3.09392L17.5244 19.8232H19.3891Z" fill="#2C322E"/>
<path d="M40.4108 3.42541V19.8011H42.2306V20H36.4116V19.8011H40.1861C40.1711 19.7274 40.1487 19.6169 40.1187 19.4696C40.0888 19.3076 40.0363 19.116 39.9615 18.895C39.9315 18.8066 39.8866 18.7182 39.8266 18.6298C39.7817 18.5267 39.7293 18.4162 39.6694 18.2983C39.5945 18.1805 39.5196 18.07 39.4447 17.9669C39.3848 17.8637 39.3174 17.768 39.2425 17.6796C39.0777 17.4733 38.9205 17.2965 38.7707 17.1492C38.6209 16.9871 38.5011 16.8619 38.4112 16.7735C38.3813 16.744 38.3588 16.7219 38.3438 16.7072C38.3288 16.6924 38.3064 16.6777 38.2764 16.663L24.9085 5.21547V19.8011H26.7283V20H20.9093V19.8011H22.7516V3.11602L22.9314 3.27072L23.4706 3.71271L24.9085 4.95028L38.254 16.3757V3.42541H36.4116V3.22652H42.2306V3.42541H40.4108Z" fill="#2C322E"/>
<path d="M56.016 13.1934L52.5111 5.67956L48.9838 13.1934H56.016ZM63.1605 19.8232V20H57.3415V19.8232H59.1164L56.1058 13.3923H48.8939L45.8833 19.8232H47.6582V20H43.7714V19.8232H45.6362L52.3763 5.41436L53.3648 3.31492L53.4772 3.09392L61.2957 19.8232H63.1605Z" fill="#2C322E"/>
<path d="M64.7931 3.29282H70.5896V3.46961H68.7697V19.8232H70.5896V20H64.7931V19.8232H66.6129V3.46961H64.7931V3.29282ZM69.6235 1.83425C69.3239 1.83425 69.0693 1.74586 68.8596 1.56906C68.6499 1.37753 68.5451 1.15654 68.5451 0.906078C68.5451 0.655617 68.6499 0.441989 68.8596 0.265193C69.0693 0.0883975 69.3239 0 69.6235 0C69.923 0 70.1777 0.0883975 70.3874 0.265193C70.5971 0.441989 70.7019 0.655617 70.7019 0.906078C70.7019 1.15654 70.5971 1.37753 70.3874 1.56906C70.1777 1.74586 69.923 1.83425 69.6235 1.83425ZM65.7591 1.83425C65.4596 1.83425 65.2049 1.74586 64.9953 1.56906C64.7856 1.37753 64.6807 1.15654 64.6807 0.906078C64.6807 0.655617 64.7856 0.441989 64.9953 0.265193C65.2049 0.0883975 65.4596 0 65.7591 0C66.0587 0 66.3133 0.0883975 66.523 0.265193C66.7327 0.441989 66.8376 0.655617 66.8376 0.906078C66.8376 1.15654 66.7327 1.37753 66.523 1.56906C66.3133 1.74586 66.0587 1.83425 65.7591 1.83425Z" fill="#2C322E"/>
<path d="M80.1816 6.56354C81.26 6.57827 82.2711 6.76243 83.2147 7.11602C84.1583 7.46961 84.9821 7.9558 85.6861 8.57459C86.39 9.17864 86.9442 9.88582 87.3486 10.6961C87.753 11.5064 87.9552 12.3757 87.9552 13.3039C87.9552 14.2173 87.753 15.0792 87.3486 15.8895C86.9442 16.6998 86.39 17.4144 85.6861 18.0331C84.9821 18.6372 84.1583 19.116 83.2147 19.4696C82.2711 19.8232 81.26 20 80.1816 20H80.0019C78.9384 20 77.9349 19.8306 76.9913 19.4917C76.0627 19.1381 75.2463 18.6667 74.5424 18.0773C73.8534 17.4733 73.2992 16.7735 72.8798 15.9779C72.4754 15.1676 72.2657 14.3057 72.2507 13.3923V13.3039H72.2283V13.1934H72.2507V11.6464H72.4529V11.7569C72.4679 11.7716 72.4754 11.8158 72.4754 11.8895C72.5054 11.9632 72.5278 12.0442 72.5428 12.1326C72.5728 12.221 72.6177 12.3168 72.6776 12.4199C72.7375 12.5525 72.8349 12.6704 72.9697 12.7735C73.1045 12.8913 73.2393 12.965 73.3741 12.9945C73.5239 13.0681 73.6662 13.1197 73.801 13.1492C73.9507 13.1639 74.0631 13.1786 74.138 13.1934H74.3851V13.2155C74.8644 13.2302 75.2314 13.326 75.486 13.5028C75.7556 13.6796 75.9503 13.8711 76.0701 14.0773C76.2049 14.2983 76.2798 14.4972 76.2948 14.674C76.3248 14.8508 76.3398 14.9466 76.3398 14.9613H76.1151C76.1151 14.9319 76.1076 14.9098 76.0926 14.895C76.0926 14.8656 76.0926 14.8361 76.0926 14.8066V14.7182C76.0627 14.5414 75.9953 14.3573 75.8904 14.1657C75.7706 13.9742 75.5983 13.8048 75.3737 13.6575C75.149 13.5101 74.8195 13.4217 74.3851 13.3923C74.4001 14.2762 74.5574 15.1087 74.8569 15.8895C75.1565 16.6704 75.5609 17.3481 76.0701 17.9227C76.5944 18.5267 77.201 18.9982 77.89 19.337C78.579 19.6611 79.3129 19.8232 80.0918 19.8232C80.8856 19.8232 81.6195 19.6611 82.2935 19.337C82.9825 18.9982 83.5891 18.5267 84.1134 17.9227C84.6376 17.3333 85.0495 16.6483 85.3491 15.8674C85.6486 15.0718 85.7984 14.2173 85.7984 13.3039C85.7984 12.3904 85.6486 11.5359 85.3491 10.7403C85.0495 9.94475 84.6376 9.2523 84.1134 8.66298C83.5891 8.05893 82.9825 7.59484 82.2935 7.27072C81.6195 6.93186 80.8856 6.76243 80.0918 6.76243C79.5825 6.76243 79.1856 6.67403 78.901 6.49724C78.6314 6.30571 78.4367 6.09945 78.3168 5.87845C78.1821 5.64273 78.0997 5.44383 78.0697 5.28177C78.0398 5.19337 78.0323 5.10497 78.0472 5.01657C78.0472 5.00184 78.0547 4.90608 78.0697 4.72928C78.0997 4.55249 78.1821 4.35359 78.3168 4.1326C78.4367 3.9116 78.6314 3.71271 78.901 3.53591C79.1856 3.34438 79.5825 3.24862 80.0918 3.24862C80.601 3.24862 80.9979 3.34438 81.2825 3.53591C81.5671 3.71271 81.7693 3.9116 81.8891 4.1326C82.0089 4.35359 82.0764 4.55249 82.0913 4.72928C82.1213 4.90608 82.1363 5.00184 82.1363 5.01657H81.9341V4.95028C81.9341 4.92081 81.9191 4.86188 81.8891 4.77348C81.8741 4.69982 81.8517 4.61878 81.8217 4.53039C81.8067 4.42726 81.7618 4.32413 81.6869 4.22099C81.5671 4.01473 81.3874 3.83794 81.1477 3.69061C80.923 3.52855 80.5711 3.44751 80.0918 3.44751C79.6274 3.44751 79.2755 3.52855 79.0358 3.69061C78.7962 3.83794 78.6164 4.01473 78.4966 4.22099C78.3917 4.41252 78.3243 4.59668 78.2944 4.77348C78.2794 4.86188 78.2719 4.94291 78.2719 5.01657V5.17127C78.2719 5.20074 78.2794 5.2302 78.2944 5.25967C78.3243 5.42173 78.3917 5.59853 78.4966 5.79006C78.6164 5.99632 78.7962 6.18048 79.0358 6.34254C79.2755 6.48987 79.6274 6.56354 80.0918 6.56354H80.1816Z" fill="#2C322E"/>
<path d="M116.958 19.8011V19.9779H111.161V19.8011H114.914V16.5746C114.914 16.5009 114.906 16.4125 114.891 16.3094C114.861 16.1326 114.794 15.8895 114.689 15.5801C114.569 15.2707 114.374 14.9245 114.105 14.5414C113.85 14.1436 113.483 13.7385 113.004 13.326C112.524 12.9134 112.15 12.5967 111.88 12.3757C111.626 12.1547 111.439 11.9853 111.319 11.8674C111.259 11.8232 111.206 11.779 111.161 11.7348L105.41 16.6409L105.298 16.7514C105.208 16.825 105.088 16.9429 104.938 17.105C104.788 17.267 104.631 17.4512 104.466 17.6575C104.317 17.8343 104.174 18.0405 104.039 18.2762C103.92 18.4825 103.822 18.6888 103.747 18.895C103.672 19.1013 103.613 19.2855 103.568 19.4475C103.538 19.5948 103.523 19.7053 103.523 19.779V19.8011H107.275V19.9779H101.456V19.8011H103.298V5.21547C103.208 5.30387 103.096 5.42173 102.961 5.56906C102.826 5.70166 102.676 5.86372 102.512 6.05525C102.272 6.36464 102.055 6.71823 101.86 7.11602C101.665 7.49908 101.568 7.8895 101.568 8.28729H101.343C101.343 7.8895 101.433 7.50645 101.613 7.13812C101.808 6.75506 102.017 6.40884 102.242 6.09945C102.467 5.79006 102.684 5.53223 102.894 5.32597C103.103 5.11971 103.238 4.98711 103.298 4.92818L103.343 4.88398L105.253 3.24862L105.455 3.09392V16.3536C105.784 16.0737 106.189 15.7274 106.668 15.3149C107.162 14.8877 107.672 14.4457 108.196 13.989C108.735 13.5322 109.274 13.0755 109.813 12.6188C110.353 12.1621 110.839 11.7422 111.274 11.3591C111.723 10.9761 112.098 10.6519 112.397 10.3867C112.712 10.1215 112.906 9.95949 112.981 9.90055V5.21547C112.891 5.30387 112.779 5.42173 112.644 5.56906C112.51 5.70166 112.367 5.86372 112.217 6.05525C111.963 6.36464 111.738 6.71823 111.543 7.11602C111.349 7.49908 111.251 7.8895 111.251 8.28729H111.049C111.049 7.8895 111.139 7.50645 111.319 7.13812C111.499 6.75506 111.701 6.40884 111.925 6.09945C112.15 5.79006 112.367 5.53223 112.577 5.32597C112.787 5.11971 112.921 4.98711 112.981 4.92818L113.004 4.90608L115.138 3.09392V6.62983C115.138 7.05709 115.033 7.47698 114.824 7.8895C114.629 8.30203 114.404 8.66298 114.15 8.97238C113.865 9.35543 113.536 9.70166 113.161 10.0111L112.981 10.1657L111.296 11.6022C111.371 11.6759 111.536 11.8232 111.791 12.0442C112.06 12.2652 112.517 12.6483 113.161 13.1934C113.655 13.6206 114.037 14.0331 114.307 14.4309C114.576 14.8287 114.771 15.1897 114.891 15.5138C115.041 15.8969 115.123 16.2505 115.138 16.5746V19.8011H116.958Z" fill="#2C322E"/>
<path d="M134.228 19.8232H136.07V20H130.251V19.8232H132.071V11.7127H122.612V19.8232H124.432V20H118.613V19.8232H120.456V5.23757C120.261 5.41436 119.999 5.69429 119.669 6.07735C119.43 6.38674 119.212 6.74033 119.018 7.13812C118.823 7.52118 118.726 7.9116 118.726 8.30939H118.501C118.501 7.9116 118.591 7.52854 118.77 7.16022C118.965 6.77716 119.175 6.43094 119.4 6.12155C119.624 5.81215 119.841 5.55433 120.051 5.34807C120.261 5.1418 120.396 5.00921 120.456 4.95028L122.612 3.11602V11.5359H132.071V3.42541H130.251V3.24862H136.07V3.42541H134.228V19.8232Z" fill="#2C322E"/>
<path d="M149.564 19.6022C150.163 19.4991 150.785 19.337 151.429 19.116C152.088 18.895 152.657 18.5856 153.136 18.1878L153.294 18.3204L151.317 20H145.453C145.048 20 144.644 19.9411 144.239 19.8232C143.85 19.6906 143.483 19.5433 143.139 19.3812C142.809 19.2192 142.517 19.0497 142.262 18.8729C142.023 18.6961 141.835 18.5562 141.701 18.453V18.4751L140.083 17.105L139.566 16.663V16.6409L139.544 16.6188C139.484 16.5599 139.349 16.4273 139.139 16.221C138.93 16.0147 138.712 15.7643 138.488 15.4696C138.263 15.1602 138.053 14.8214 137.859 14.453C137.679 14.07 137.589 13.6796 137.589 13.2818H137.814C137.814 13.6796 137.911 14.0773 138.106 14.4751C138.301 14.8582 138.518 15.1971 138.757 15.4917C138.922 15.698 139.072 15.8748 139.207 16.0221C139.342 16.1547 139.454 16.2652 139.544 16.3536V3.42541H137.701V3.22652H151.317L153.294 4.92818L153.204 4.99448L153.136 5.06077C152.657 4.64825 152.088 4.33149 151.429 4.1105C150.785 3.8895 150.163 3.72744 149.564 3.62431C149.265 3.58011 148.98 3.54328 148.71 3.51381C148.456 3.48435 148.231 3.46225 148.036 3.44751C147.812 3.43278 147.602 3.42541 147.407 3.42541H141.701V11.5138H147.452L149.407 13.2155L149.339 13.2818L149.25 13.3481C148.77 12.9355 148.209 12.6188 147.565 12.3978C146.92 12.1768 146.291 12.0147 145.677 11.9116C145.123 11.8232 144.644 11.7716 144.239 11.7569C143.85 11.7274 143.618 11.7127 143.543 11.7127H141.701V18.2099C141.761 18.2541 141.888 18.3573 142.083 18.5193C142.292 18.6667 142.547 18.8287 142.846 19.0055C143.206 19.2118 143.61 19.3959 144.06 19.558C144.524 19.7201 144.988 19.8011 145.453 19.8011H147.407C147.602 19.8011 147.812 19.7937 148.036 19.779C148.231 19.7643 148.456 19.7495 148.71 19.7348C148.98 19.7053 149.265 19.6611 149.564 19.6022Z" fill="#2C322E"/>
<path d="M168.54 20H154.925V19.8232H156.767V5.23757C156.677 5.32597 156.565 5.44383 156.43 5.59116C156.295 5.72376 156.146 5.88582 155.981 6.07735C155.741 6.38674 155.524 6.74033 155.329 7.13812C155.134 7.52118 155.037 7.9116 155.037 8.30939H154.812C154.812 7.9116 154.902 7.52854 155.082 7.16022C155.277 6.77716 155.486 6.43094 155.711 6.12155C155.936 5.81215 156.153 5.55433 156.363 5.34807C156.572 5.1418 156.707 5.00921 156.767 4.95028L156.79 4.92818L158.722 3.27072L158.924 3.11602V19.8232H164.631C164.825 19.8232 165.035 19.8158 165.26 19.8011C165.454 19.7864 165.679 19.7716 165.934 19.7569C166.203 19.7274 166.488 19.6832 166.787 19.6243C167.387 19.5064 168.008 19.3444 168.652 19.1381C169.311 18.9171 169.88 18.6004 170.36 18.1878L170.517 18.3204L168.54 20Z" fill="#2C322E"/>
<path d="M176.035 3.42541V19.8232H177.855V20H172.036V19.8232H173.878V3.42541H172.036V3.24862H177.855V3.42541H176.035Z" fill="#2C322E"/>
<path d="M195 4.92818L194.933 4.99448L194.843 5.06077C194.363 4.66298 193.794 4.35359 193.135 4.1326C192.491 3.9116 191.87 3.74954 191.27 3.64641C190.671 3.54328 190.162 3.47698 189.743 3.44751C189.518 3.43278 189.308 3.42541 189.114 3.42541H183.407V11.5359H189.159L191.113 13.2155L190.978 13.3481C190.499 12.9503 189.93 12.6409 189.271 12.4199C188.627 12.1989 187.998 12.0368 187.384 11.9337C186.859 11.8453 186.403 11.7864 186.013 11.7569C185.639 11.7274 185.399 11.7127 185.294 11.7127H183.407V19.8232H185.227V20H179.408V19.8232H181.25V3.42541H179.43V3.24862H193.023L195 4.92818Z" fill="#2C322E"/>
</svg>

<?xml version="1.0" encoding="utf-8"?>
<!-- Generator: Adobe Illustrator 24.3.0, SVG Export Plug-In . SVG Version: 6.00 Build 0)  -->
<svg version="1.1" id="Calque_1" xmlns="http://www.w3.org/2000/svg" xmlns:xlink="http://www.w3.org/1999/xlink" x="0px" y="0px"
	 viewBox="0 0 22.4 20" style="enable-background:new 0 0 22.4 20;" xml:space="preserve">
<style type="text/css">
	.st0{fill:#FFFFFF;stroke:#FFFFFF;stroke-miterlimit:10;}
</style>
<path class="st0" d="M12.2,13.2L8.7,5.7l-3.5,7.5H12.2z M19.4,19.8V20h-5.8v-0.2h1.8l-3-6.4H5.1l-3,6.4h1.8V20H0v-0.2h1.9L8.6,5.4
	l1-2.1l0.1-0.2l7.8,16.7C17.5,19.8,19.4,19.8,19.4,19.8z"/>
</svg>
